src/pos-icons/border-style.svg

<svg height="24" viewBox="0 0 24 24" width="24" xmlns="http://www.w3.org/2000/svg"><path d="m15 21h2v-2h-2m4 2h2v-2h-2m-12 2h2v-2h-2m4 2h2v-2h-2m8-2h2v-2h-2m0-2h2v-2h-2m-16-8v18h2v-16h16v-2m-2 6h2v-2h-2"/></svg>

<?xml version="1.0" encoding="UTF-8"?><!DOCTYPE svg PUBLIC "-//W3C//DTD SVG 1.1//EN" "http://www.w3.org/Graphics/SVG/1.1/DTD/svg11.dtd"><svg xmlns="http://www.w3.org/2000/svg" xmlns:xlink="http://www.w3.org/1999/xlink" version="1.1" id="mdi-border-style" width="24" height="24" viewBox="0 0 24 24"><path d="M15,21H17V19H15M19,21H21V19H19M7,21H9V19H7M11,21H13V19H11M19,17H21V15H19M19,13H21V11H19M3,3V21H5V5H21V3M19,9H21V7H19" /></svg>
